img/a/app.ramp.com.svg

<svg width="32" height="32" viewBox="0 0 32 32" fill="none" xmlns="http://www.w3.org/2000/svg"><path d="M0 16C0 7.16344 7.16344 0 16 0C24.8366 0 32 7.16344 32 16C32 24.8366 24.8366 32 16 32C7.16344 32 0 24.8366 0 16Z" fill="#F5FF78"/><path d="M24.6155 22.0846V22.1497L15.231 22.153V22.0846C16.5842 21.3127 17.5183 20.5264 18.3588 19.7048H22.2123L24.6155 22.0846ZM22.2903 9.74088L19.9116 7.38434H19.8425C19.8425 7.38434 19.8826 11.7761 15.8887 15.7703C11.9806 19.6795 7.38477 19.6883 7.38477 19.6883V19.7568L9.80809 22.1542C9.80809 22.1542 14.337 22.1994 18.3376 18.2361C22.3237 14.2861 22.2903 9.74088 22.2903 9.74088Z" fill="black"/></svg>

<svg xmlns="http://www.w3.org/2000/svg" viewBox="0 0 32 32"><path fill="#F5FF78" d="M0 16a16 16 0 1 1 32 0 16 16 0 0 1-32 0Z"/><path fill="#000" d="M24.62 22.08v.07h-9.39v-.07a14.7 14.7 0 0 0 3.13-2.38h3.85l2.4 2.38ZM22.29 9.74l-2.38-2.36h-.07s.04 4.4-3.95 8.39a13.11 13.11 0 0 1-8.5 3.92v.07l2.42 2.4s4.53.04 8.53-3.92c3.98-3.95 3.95-8.5 3.95-8.5Z"/></svg>
